images/icons/calculate.svg

<svg width="18" height="18" fill="none" xmlns="http://www.w3.org/2000/svg"><path d="M16 0H2C.9 0 0 .9 0 2v14c0 1.1.9 2 2 2h14c1.1 0 2-.9 2-2V2c0-1.1-.9-2-2-2zm0 16H2V2h14v14z" fill="#fff"/><path d="M3.25 4.72h5v1.5h-5v-1.5zM10 12.75h5v1.5h-5v-1.5zm0-2.5h5v1.5h-5v-1.5zM5 15h1.5v-2h2v-1.5h-2v-2H5v2H3V13h2v2zm6.09-7.05l1.41-1.41 1.41 1.41 1.06-1.06-1.41-1.42 1.41-1.41L13.91 3 12.5 4.41 11.09 3l-1.06 1.06 1.41 1.41-1.41 1.42 1.06 1.06z" fill="#fff"/></svg>

<svg width="18" height="18" viewBox="0 0 18 18" fill="none" xmlns="http://www.w3.org/2000/svg">
<path d="M16 0H2C0.9 0 0 0.9 0 2V16C0 17.1 0.9 18 2 18H16C17.1 18 18 17.1 18 16V2C18 0.9 17.1 0 16 0ZM16 16H2V2H16V16Z" fill="white"/>
<path d="M3.25 4.72H8.25V6.22H3.25V4.72ZM10 12.75H15V14.25H10V12.75ZM10 10.25H15V11.75H10V10.25ZM5 15H6.5V13H8.5V11.5H6.5V9.5H5V11.5H3V13H5V15ZM11.09 7.95L12.5 6.54L13.91 7.95L14.97 6.89L13.56 5.47L14.97 4.06L13.91 3L12.5 4.41L11.09 3L10.03 4.06L11.44 5.47L10.03 6.89L11.09 7.95Z" fill="white"/>
</svg>
